Numix-Light/16/status/indicator-keyboard-Br-2.svg

<?xml version="1.0" encoding="UTF-8" standalone="no"?>
<svg
   xmlns:dc="http://purl.org/dc/elements/1.1/"
   xmlns:cc="http://creativecommons.org/ns#"
   xmlns:rdf="http://www.w3.org/1999/02/22-rdf-syntax-ns#"
   xmlns:svg="http://www.w3.org/2000/svg"
   xmlns="http://www.w3.org/2000/svg"
   xmlns:sodipodi="http://sodipodi.sourceforge.net/DTD/sodipodi-0.dtd"
   xmlns:inkscape="http://www.inkscape.org/namespaces/inkscape"
   viewBox="0 0 16 16"
   id="svg2"
   version="1.1"
   inkscape:version="0.91 r13725"
   sodipodi:docname="indicator-keyboard-Br-2.svg">
  <metadata
     id="metadata14">
    <rdf:RDF>
      <cc:Work
         rdf:about="">
        <dc:format>image/svg+xml</dc:format>
        <dc:type
           rdf:resource="http://purl.org/dc/dcmitype/StillImage" />
      </cc:Work>
    </rdf:RDF>
  </metadata>
  <defs
     id="defs12" />
  <sodipodi:namedview
     pagecolor="#ffffff"
     bordercolor="#666666"
     borderopacity="1"
     objecttolerance="10"
     gridtolerance="10"
     guidetolerance="10"
     inkscape:pageopacity="0"
     inkscape:pageshadow="2"
     inkscape:window-width="459"
     inkscape:window-height="369"
     id="namedview10"
     showgrid="false"
     inkscape:zoom="14.75"
     inkscape:cx="8"
     inkscape:cy="8"
     inkscape:window-x="65"
     inkscape:window-y="24"
     inkscape:window-maximized="0"
     inkscape:current-layer="svg2" />
  <path
     style="fill:#353535;fill-opacity:1"
     d="M 1.5996094 0 C 0.71320937 2.9605947e-16 0 0.71320937 0 1.5996094 L 0 14.400391 C 2.9605947e-16 15.286791 0.71320937 16 1.5996094 16 L 14.400391 16 C 15.286791 16 16 15.286791 16 14.400391 L 16 1.5996094 C 16 0.71320937 15.286791 0 14.400391 0 L 1.5996094 0 z M 4.0410156 4.8046875 C 4.3770156 4.8046875 4.6941406 4.8327187 4.9941406 4.8867188 C 5.3001406 4.9407187 5.5669219 5.03025 5.7949219 5.15625 C 6.0229219 5.28225 6.2039375 5.4501562 6.3359375 5.6601562 C 6.4739375 5.8641563 6.5429688 6.1197812 6.5429688 6.4257812 C 6.5429688 6.7617812 6.45525 7.0490625 6.28125 7.2890625 C 6.11325 7.5230625 5.8856563 7.6853906 5.5976562 7.7753906 C 5.7776562 7.8173906 5.9417969 7.8770781 6.0917969 7.9550781 C 6.2417969 8.0330781 6.3742812 8.1357187 6.4882812 8.2617188 C 6.6022813 8.3817188 6.69 8.5309375 6.75 8.7109375 C 6.816 8.8849375 6.8476562 9.0957969 6.8476562 9.3417969 C 6.8476562 9.9297971 6.6144844 10.379406 6.1464844 10.691406 C 5.6784844 10.997406 4.9545625 11.150391 3.9765625 11.150391 C 3.8745625 11.150391 3.7551875 11.144813 3.6171875 11.132812 C 3.4851875 11.126813 3.347125 11.113703 3.203125 11.095703 C 3.065125 11.083703 2.9326406 11.068781 2.8066406 11.050781 C 2.6806406 11.026781 2.574375 11.002516 2.484375 10.978516 L 2.484375 4.9765625 C 2.592375 4.9465625 2.71175 4.9222969 2.84375 4.9042969 C 2.97575 4.8802969 3.1100469 4.8616094 3.2480469 4.8496094 C 3.3920469 4.8316094 3.5301094 4.8204531 3.6621094 4.8144531 C 3.8001094 4.8084531 3.9270156 4.8046875 4.0410156 4.8046875 z M 4.0410156 5.3261719 C 3.8190156 5.3261719 3.6286563 5.3337031 3.4726562 5.3457031 C 3.3226563 5.3577031 3.1977031 5.372625 3.0957031 5.390625 L 3.0957031 7.5859375 L 4.2832031 7.5859375 C 4.5052031 7.5859375 4.7160625 7.5710156 4.9140625 7.5410156 C 5.1120625 7.5050156 5.2817813 7.4453281 5.4257812 7.3613281 C 5.5757812 7.2713281 5.6933437 7.1537656 5.7773438 7.0097656 C 5.8613437 6.8597656 5.9042969 6.6713594 5.9042969 6.4433594 C 5.9042969 6.2393594 5.8575781 6.0676875 5.7675781 5.9296875 C 5.6775781 5.7856875 5.5488594 5.668125 5.3808594 5.578125 C 5.2188594 5.488125 5.024875 5.426625 4.796875 5.390625 C 4.568875 5.348625 4.3170156 5.3261719 4.0410156 5.3261719 z M 9.7089844 6.3535156 C 9.9009844 6.3535156 10.082 6.3684375 10.25 6.3984375 C 10.424 6.4284375 10.543375 6.4582812 10.609375 6.4882812 L 10.492188 6.9921875 C 10.444188 6.9681875 10.345312 6.9439219 10.195312 6.9199219 C 10.051313 6.8899219 9.8591406 6.875 9.6191406 6.875 C 9.3671406 6.875 9.1638125 6.8936875 9.0078125 6.9296875 C 8.8578125 6.9656875 8.7589375 6.9955312 8.7109375 7.0195312 L 8.7109375 11.095703 L 8.125 11.095703 L 8.125 6.6582031 C 8.275 6.5922031 8.4820937 6.5269375 8.7460938 6.4609375 C 9.0100937 6.3889375 9.3309844 6.3535156 9.7089844 6.3535156 z M 3.0957031 8.1074219 L 3.0957031 10.564453 C 3.1857031 10.576453 3.32 10.591375 3.5 10.609375 C 3.68 10.621375 3.8628281 10.628906 4.0488281 10.628906 C 4.3248281 10.628906 4.5916094 10.610219 4.8496094 10.574219 C 5.1136094 10.538219 5.3449687 10.472953 5.5429688 10.376953 C 5.7409687 10.280953 5.8995313 10.148469 6.0195312 9.9804688 C 6.1395313 9.8124687 6.2011719 9.5960312 6.2011719 9.3320312 C 6.2011719 9.0920313 6.1582187 8.8942813 6.0742188 8.7382812 C 5.9902188 8.5762813 5.8708437 8.449375 5.7148438 8.359375 C 5.5588438 8.263375 5.3666719 8.1981094 5.1386719 8.1621094 C 4.9166719 8.1261094 4.666625 8.1074219 4.390625 8.1074219 L 3.0957031 8.1074219 z M 12.189453 8.7539062 C 12.583353 8.7539062 12.879225 8.851875 13.078125 9.046875 C 13.277025 9.237975 13.376953 9.5044563 13.376953 9.8476562 C 13.376953 9.9997563 13.349522 10.14475 13.294922 10.28125 C 13.240322 10.41385 13.165866 10.543169 13.072266 10.667969 C 12.982566 10.792769 12.878719 10.912297 12.761719 11.029297 C 12.644719 11.146297 12.525197 11.263859 12.404297 11.380859 C 12.302897 11.478359 12.204922 11.578288 12.107422 11.679688 C 12.013822 11.777188 11.927609 11.877116 11.849609 11.978516 C 11.775509 12.076016 11.714769 12.172031 11.667969 12.269531 C 11.625069 12.363131 11.603516 12.457181 11.603516 12.550781 L 11.603516 12.5625 L 13.515625 12.5625 L 13.515625 12.896484 L 11.181641 12.896484 C 11.181641 12.888684 11.179715 12.874969 11.175781 12.855469 L 11.175781 12.755859 C 11.175781 12.572559 11.209091 12.402094 11.275391 12.246094 C 11.341691 12.086194 11.425944 11.937275 11.527344 11.796875 C 11.632644 11.656475 11.748247 11.525197 11.873047 11.404297 C 12.001747 11.283397 12.125188 11.165834 12.242188 11.052734 C 12.339687 10.959134 12.429825 10.869003 12.515625 10.783203 C 12.605325 10.693503 12.6837 10.603366 12.75 10.509766 C 12.8163 10.416166 12.869203 10.316237 12.908203 10.210938 C 12.947203 10.105638 12.966797 9.9900344 12.966797 9.8652344 C 12.966797 9.5922344 12.892341 9.39825 12.744141 9.28125 C 12.599841 9.16035 12.417613 9.0996094 12.195312 9.0996094 C 12.070512 9.0996094 11.958828 9.1152844 11.861328 9.1464844 C 11.763828 9.1776844 11.677616 9.2149125 11.603516 9.2578125 C 11.533316 9.2968125 11.472575 9.3379594 11.421875 9.3808594 C 11.371175 9.4237594 11.333947 9.4570688 11.310547 9.4804688 L 11.111328 9.2167969 C 11.134728 9.1894969 11.175875 9.1503094 11.234375 9.0996094 C 11.296775 9.0450094 11.373191 8.9921062 11.462891 8.9414062 C 11.556491 8.8907063 11.664256 8.8476 11.785156 8.8125 C 11.906056 8.7735 12.041253 8.7539063 12.189453 8.7539062 z "
     id="path4" />
</svg>

<svg xmlns="http://www.w3.org/2000/svg" viewBox="0 0 16 16">
 <path d="m 1.6 0 c -0.886 0 -1.6 0.713 -1.6 1.6 l 0 12.801 c 0 0.886 0.713 1.6 1.6 1.6 l 12.801 0 c 0.886 0 1.6 -0.713 1.6 -1.6 l 0 -12.801 c 0 -0.886 -0.713 -1.6 -1.6 -1.6 l -12.801 0 z m 2.441 4.805 c 0.336 0 0.653 0.028 0.953 0.082 c 0.306 0.054 0.573 0.144 0.801 0.27 c 0.228 0.126 0.409 0.294 0.541 0.504 c 0.138 0.204 0.207 0.46 0.207 0.766 c 0 0.336 -0.088 0.623 -0.262 0.863 c -0.168 0.234 -0.396 0.396 -0.684 0.486 c 0.18 0.042 0.344 0.102 0.494 0.18 c 0.15 0.078 0.282 0.181 0.396 0.307 c 0.114 0.12 0.202 0.269 0.262 0.449 c 0.066 0.174 0.098 0.385 0.098 0.631 c 0 0.588 -0.233 1.038 -0.701 1.35 c -0.468 0.306 -1.192 0.459 -2.17 0.459 c -0.102 0 -0.221 -0.006 -0.359 -0.018 c -0.132 -0.006 -0.27 -0.019 -0.414 -0.037 c -0.138 -0.012 -0.27 -0.027 -0.396 -0.045 c -0.126 -0.024 -0.232 -0.048 -0.322 -0.072 l 0 -6 c 0.108 -0.03 0.227 -0.054 0.359 -0.072 c 0.132 -0.024 0.266 -0.043 0.404 -0.055 c 0.144 -0.018 0.282 -0.029 0.414 -0.035 c 0.138 -0.006 0.265 -0.01 0.379 -0.01 z m 0 0.521 c -0.222 0 -0.412 0.008 -0.568 0.02 c -0.15 0.012 -0.275 0.027 -0.377 0.045 l 0 2.195 l 1.187 0 c 0.222 0 0.433 -0.015 0.631 -0.045 c 0.198 -0.036 0.368 -0.096 0.512 -0.18 c 0.15 -0.09 0.268 -0.208 0.352 -0.352 c 0.084 -0.15 0.127 -0.338 0.127 -0.566 c 0 -0.204 -0.047 -0.376 -0.137 -0.514 c -0.09 -0.144 -0.219 -0.262 -0.387 -0.352 c -0.162 -0.09 -0.356 -0.152 -0.584 -0.188 c -0.228 -0.042 -0.48 -0.064 -0.756 -0.064 z m 5.668 1.027 c 0.192 0 0.373 0.015 0.541 0.045 c 0.174 0.03 0.293 0.06 0.359 0.09 l -0.117 0.504 c -0.048 -0.024 -0.147 -0.048 -0.297 -0.072 c -0.144 -0.03 -0.336 -0.045 -0.576 -0.045 c -0.252 0 -0.455 0.019 -0.611 0.055 c -0.15 0.036 -0.249 0.066 -0.297 0.09 l 0 4.076 l -0.586 0 l 0 -4.437 c 0.15 -0.066 0.357 -0.131 0.621 -0.197 c 0.264 -0.072 0.585 -0.107 0.963 -0.107 z m -6.613 1.754 l 0 2.457 c 0.09 0.012 0.224 0.027 0.404 0.045 c 0.18 0.012 0.363 0.02 0.549 0.02 c 0.276 0 0.543 -0.019 0.801 -0.055 c 0.264 -0.036 0.495 -0.101 0.693 -0.197 c 0.198 -0.096 0.357 -0.228 0.477 -0.396 c 0.12 -0.168 0.182 -0.384 0.182 -0.648 c 0 -0.24 -0.043 -0.438 -0.127 -0.594 c -0.084 -0.162 -0.203 -0.289 -0.359 -0.379 c -0.156 -0.096 -0.348 -0.161 -0.576 -0.197 c -0.222 -0.036 -0.472 -0.055 -0.748 -0.055 l -1.295 0 z m 9.09 0.646 c 0.394 0 0.69 0.098 0.889 0.293 c 0.199 0.191 0.299 0.458 0.299 0.801 c 0 0.152 -0.027 0.297 -0.082 0.434 c -0.055 0.133 -0.129 0.262 -0.223 0.387 c -0.09 0.125 -0.194 0.244 -0.311 0.361 c -0.117 0.117 -0.237 0.235 -0.357 0.352 c -0.101 0.098 -0.199 0.197 -0.297 0.299 c -0.094 0.098 -0.18 0.197 -0.258 0.299 c -0.074 0.097 -0.135 0.194 -0.182 0.291 c -0.043 0.094 -0.064 0.188 -0.064 0.281 l 0 0.012 l 1.912 0 l 0 0.334 l -2.334 0 c 0 -0.008 -0.002 -0.022 -0.006 -0.041 l 0 -0.1 c 0 -0.183 0.033 -0.354 0.1 -0.51 c 0.066 -0.16 0.151 -0.309 0.252 -0.449 c 0.105 -0.14 0.221 -0.272 0.346 -0.393 c 0.129 -0.121 0.252 -0.238 0.369 -0.352 c 0.097 -0.094 0.188 -0.184 0.273 -0.27 c 0.09 -0.09 0.168 -0.18 0.234 -0.273 c 0.066 -0.094 0.119 -0.194 0.158 -0.299 c 0.039 -0.105 0.059 -0.221 0.059 -0.346 c 0 -0.273 -0.074 -0.467 -0.223 -0.584 c -0.144 -0.121 -0.327 -0.182 -0.549 -0.182 c -0.125 0 -0.236 0.016 -0.334 0.047 c -0.098 0.031 -0.184 0.068 -0.258 0.111 c -0.07 0.039 -0.131 0.08 -0.182 0.123 c -0.051 0.043 -0.088 0.076 -0.111 0.1 l -0.199 -0.264 c 0.023 -0.027 0.065 -0.066 0.123 -0.117 c 0.062 -0.055 0.139 -0.108 0.229 -0.158 c 0.094 -0.051 0.201 -0.094 0.322 -0.129 c 0.121 -0.039 0.256 -0.059 0.404 -0.059 z" style="fill:#353535;fill-opacity:1"/>
</svg>
